X: 32885
T: Portrush
R: slip jig
M: 9/8
K: Gmajor
|:D|GBd gfe dBD|GBd gfe d2 D|GB/c/d gfe dBG|A>Bc DEF G2:|
|:E|D>ED D2 E FED|G>AG G2 B dBG|ceg gg/f/e dBG|AA/B/c DEF G2:|

